packages/icons/src/SVG/import-solid.svg

<!-- Generated by IcoMoon.io -->
<svg version="1.1" xmlns="http://www.w3.org/2000/svg" width="12" height="12" viewBox="0 0 12 12">
<title>import-solid</title>
<path d="M12 0h-12v5h5v-2l4 3-4 3v-2h-5v5h12v-12zM7 1h4v10h-4v-1h3v-8h-3v-1z"></path>
</svg>

<svg width="12" height="12" viewBox="0 0 12 12" fill="none" xmlns="http://www.w3.org/2000/svg">
<path fill-rule="evenodd" clip-rule="evenodd" d="M12 0H0V5H5L5 3L9 6L5 9V7H0V12H12V0ZM7 1H11V11H7V10H10V2H7V1Z" fill="#4C505B"/>
</svg>
